X:1
T:Title
%%score ( 1 2 ) { 3 | 4 }
L:1/8
Q:1/4=98
M:4/4
K:F
V:1 treble nm="Grand Piano, Soprano"
V:2 treble 
V:3 treble nm="Choir Pad, There�s a Voice That Calls Me"
V:4 bass 
V:1
 FG[FA][FA] [FA][FA] [Fc]2 | [EB][FA] [EG]6 | [EG][FA][EB][EB] [EB][EB] [Ed]2 | [Fc][EB] [FA]6 | %4
w: By~C.~Mason~Jones * * * * * *||||
 [FA][FB][Fc][Ec] [Fc][Ec] [Fc]2 | [EB][FA][Fd][Fd] [Fd][Fd] [Ff]2 | [Fe][Fd][Fc][EB] F[GB] [FA]2 | %7
w: |||
 [EG]2 F6 | z2 [Fc]2 [FA]2 [Fc]2- | [Fc]2 [Fd]2 [FB]2 [Fd]2- | [Fd]2 [Fc]2 [Fc][Fc] [FA]2 | %11
w: ||||
 F2 [EG]6 | [FA][FB][Fc][Ec] [Fc][Ec] [Fc]2 | [EB][FA][Fd][Fd] [Fd][Fd] [_Af]2 | %14
w: |||
 [_Ae][Ad][=Ac][FA] z2 [Ec]<[CE] | [CG]2 [CF]6- | [CF]2 z2 z4 |] %17
w: |||
V:2
 C2 z2 z4 | x8 | x8 | x8 | x8 | x8 | x8 | x8 | x8 | x8 | x8 | x8 | x8 | x8 | x8 | x8 | x8 |] %17
V:3
 A,A,CC CC C2 | CC C2[K:bass] B,A, G,2 | B,A,G,G, G,G, B,2 | A,G, F,2 A,D C2 | %4
 F,G,A,G, A,B,[K:treble] C2 | CCB,B,[K:bass] B,B, D2 | CB,A,C A,D C2 | B,2 A,6 | z2 A,2 C2 A,2- | %9
 A,2 B,2 D2 B,2- | B,2 A,2 A,A, C2 | C2 C6 | F,G,A,G, A,B,[K:treble] C2 | CCB,B, B,B, D2 | %14
 EFFC z2[K:bass] B,<B, | B,2 A,6- | A,2 z2 z4 |] %17
V:4
 F,F,F,F, F,F, A,2 | G,F, C,2 C,C, C,2 | C,C,C,C, C,C, C,2 | C,C, z2 F,F, F,2 | z F,F,C, F,G, A,2 | %5
 G,F,B,,B,, B,,B,, B,,2 | B,,B,,C,C, D,B,, C,2 | C,2 F,6 | z2 F,2 F,2 F,2- | F,2 B,,2 B,,2 B,,2- | %10
 B,,2 F,2 F,F, F,2 | A,,2 C,6 | z F,F,C, F,G, A,2 | G,F, z2 z2 =B,2 | =B,B, .C2 z2 C,<C, | %15
 C,2 F,6- | F,2 z2 z4 |] %17

